X:1
T:Praise Ye the Lord
T:Praise Ye the Lord
T:William James Kirkpatrick
T:Frances Jane (Fanny) Crosby, 1881
T:Public Domain Courtesy of the Cyber Hymnal™
T:Public Domain Courtesy of the Cyber Hymnal™
C:William James Kirkpatrick
Z:Public Domain
Z:Courtesy of the Cyber Hymnal™
%%score ( 1 2 ) ( 3 4 )
L:1/8
Q:1/4=95
M:4/4
K:Bb
V:1 treble 
V:2 treble 
V:3 bass 
V:4 bass 
V:1
 [DF]2 [DF]>[DF] [DB]3 [FA] | [EG]>[FA] [GB]>[EG] [DF]2 D2 | [DB]2 [DB]>[DB] [DB]2 [DB]2 | %3
w: 1.~Praise ye the Lord, the|hope of our sal- va- tion;|Praise ye the Lord, our|
w: 2.~Praise ye the Lord, whose|throne is ev- er- last- ing;|Praise ye the Lord, whose|
 [Fd]>[Ec] [DB]>[Fd] [Fc]4 | [Fd]2 [Fd]>[Fd] [Fd]3 [Ec] | [DB]>[Ec] [DB]>[EG] [DF]2 D2 | %6
w: soul’s a- bid- ing trust;|Great are His works and|won- der- ful His coun- sels;|
w: gifts are ev- er new;|Praise ye the Lord, whose|ten- der mer- cy fall- eth|
 [EG]2 [EG]>[EG] [DF]>[DF] [FB]>[Gc] | [Fd]2 [Ec]2 [DB]4 | [FA]2 [FA]>[FA] [FA]3 [CG] | %9
w: Praise ye the Lord, the on- ly|wise and just.|Praise ye the Lord, our|
w: Pure as the rain and gen- tle|as the dew.|Praise ye the Lord, oh,|
 [CF]>[CG] [FA]>[GB] [Ac]2 [FA]2 | [=EG]2 [EG]>[EG] [EG]3 [GB] | [FA]>[CG] [CF]>[CG] [FA]4 | %12
w: strength and our Re- deem- er,|Praise ye the Lord, His|might- y love re- call,|
w: glo- ry hal- le- lu- jah!|Praise ye the Lord, whose|king- dom has no end;|
 [FA]2 [FA]>[FA] [Fc]3 [Fc] | [FB]>[FA] [FB]>[Fc] [Fd]2 [FB]2 | [Fc]2 [=Ec]>[Ec] [Fc]>[FA] F>[FG] | %15
w: Tell how He came from|bond- age to de- liv- er,|Tell how He came to pur- chase|
w: Praise ye the Lord, who|watch- eth o’er the faith- ful,|Praise ye the Lord, our nev- er|
 [FA]2 [=EG]2 F4 ||"^Refrain" [DF]2 [DF]>[DF] [DB]3 [FA] | [EG]>[FA] [GB]>[EG] [DF]2 D2 | %18
w: life for all.|||
w: chang- ing friend.|||
 [DB]2 [DB]>[DB] [DB]2 [DB]2 | [Fd]>[Ec] [DB]>[Fd] [Fc]4 | [Fd]2 [Fd]>[Fd] [Fd]3 [Ec] | %21
w: |||
w: |||
 [DB]>[Ec] [DB]>[EG] [DF]2 D2 | [EG]2 [EG]>[EG] [DF]>[DF] [FB]>[Gc] | [Fd]2 [Ec]2 [DB]4 |] %24
w: |||
w: |||
V:2
 x8 | x6 D2 | x8 | x8 | x8 | x6 D2 | x8 | x8 | x8 | x8 | x8 | x8 | x8 | x8 | x6 F3/2 x/ | %15
 x4 (F2 _E2) || x8 | x6 D2 | x8 | x8 | x8 | x6 D2 | x8 | x8 |] %24
V:3
 [B,,B,]2 [B,,B,]>[B,,B,] [B,,F,]3 [D,B,] | [E,B,]>[E,B,] [E,B,]>[E,B,] [B,,B,]2 [B,,B,]2 | %2
w: ~ ~ ~ ~ ~|~ ~ ~ ~ ~ ~|
 [G,B,]2 [G,B,]>[G,B,] [G,B,]2 [G,B,]2 | [F,B,]>[F,B,] [F,B,]>[F,B,] [F,A,]4 | %4
w: ~ ~ ~ ~ ~|~ ~ ~ ~ ~|
 [B,,B,]2 [B,,B,]>[B,,B,] [B,,B,]3 [B,,F,] | [B,,F,]>[B,,F,] [B,,F,]>[B,,B,] [B,,B,]2 [B,,B,]2 | %6
w: ~ ~ ~ ~ ~|~ ~ ~ ~ ~ ~|
 [E,B,]2 [E,B,]>[E,B,] [B,,B,]>[B,,B,] [D,B,]>[E,B,] | [F,B,]2 [F,A,]2 [B,,B,]4 | %8
w: ~ ~ ~ ~ ~ ~ ~|~ ~ ~|
 [F,C]2 [F,C]>[F,C] [F,C]3 [F,B,] | [F,A,]>[F,B,] [F,C]>[F,C] [F,C]2 [F,C]2 | %10
w: ~ ~ ~ ~ ~|~ ~ ~ ~ ~ ~|
 [C,C]2 [C,C]>[C,C] [C,C]3 [C,C] | [F,C]>[F,B,] [F,A,]>[F,B,] [F,C]4 | %12
w: ~ ~ ~ ~ ~|~ ~ ~ ~ ~|
 [F,C]2 [F,C]>[F,C] [F,A,]3 [F,E] | [B,,D]>[B,,C] [B,,D]>[B,,A,] [B,,B,]2 [B,,D]2 | %14
w: ~ ~ ~ ~ ~|~ ~ ~ ~ ~ ~|
 [F,A,]2 [G,B,]>[G,B,] [A,C]>[A,C] [B,D]>[B,D] | C2 [C,B,]2 [F,A,]4 || %16
w: ~ ~ ~ ~ ~ ~ ~|~ ~ ~|
 [B,,B,]2 [B,,B,]>[B,,B,] [B,,F,]3 [D,B,] | [E,B,]>[E,B,] [E,B,]>[E,B,] [B,,B,]2 [B,,B,]2 | %18
w: Praise ye the Lord, for|good it is to praise Him;|
 [G,B,]2 [G,B,]>[G,B,] [G,B,]2 [G,B,]2 | [F,B,]>[F,B,] [F,B,]>[F,B,] [F,A,]4 | %20
w: O let the earth His|ma- jes- ty pro- claim;|
 [B,,B,]2 [B,,B,]>[B,,B,] [B,,B,]3 [B,,F,] | [B,,F,]>[B,,F,] [B,,F,]>[B,,B,] [B,,B,]2 [B,,B,]2 | %22
w: Shout, shout for joy and|bow the knee be- fore Him;|
 [E,B,]2 [E,B,]>[E,B,] [B,,B,]>[B,,B,] [D,B,]>[E,B,] | [F,B,]2 [F,A,]2 [B,,B,]4 |] %24
w: Sing to the harp and mag- ni-|fy His name.|
V:4
 x8 | x8 | x8 | x8 | x8 | x8 | x8 | x8 | x8 | x8 | x8 | x8 | x8 | x8 | x8 | C2 x6 || x8 | x8 | x8 | %19
 x8 | x8 | x8 | x8 | x8 |] %24

